Origami/16x16/apps/brackets-electron.svg

<svg width="16" height="16" version="1" xmlns="http://www.w3.org/2000/svg">
 <rect width="16" height="16" rx=".8" ry=".8" style="fill:#e65100"/>
 <rect x="2" y="2" width="12" height="12" rx=".8" ry=".8" style="fill:#ffffff"/>
 <path d="m4 4v8h3v-2h-1v-4h1v-2zm5 0v2h1v4h-1v2h3v-8z" style="fill:#424242"/>
</svg>

<svg xmlns="http://www.w3.org/2000/svg" width="16" height="16" version="1">
 <rect style="fill:#e65100" width="16" height="16" x="0" y="0" rx=".8" ry=".8"/>
 <rect style="fill:#ffffff" width="12" height="12" x="2" y="2" rx=".8" ry=".8"/>
 <path style="fill:#424242" d="M 4,4 V 12 H 7 V 10 H 6 V 6 H 7 V 4 Z M 9,4 V 6 H 10 V 10 H 9 V 12 H 12 V 4 Z"/>
</svg>
